svgs/thin/square-1.svg

<svg xmlns="http://www.w3.org/2000/svg" viewBox="0 0 448 512"><!--! Font Awesome Pro 6.6.0 by @fontawesome - https://fontawesome.com License - https://fontawesome.com/license (Commercial License) Copyright 2024 Fonticons, Inc. --><path d="M64 48C37.5 48 16 69.5 16 96l0 320c0 26.5 21.5 48 48 48l320 0c26.5 0 48-21.5 48-48l0-320c0-26.5-21.5-48-48-48L64 48zM0 96C0 60.7 28.7 32 64 32l320 0c35.3 0 64 28.7 64 64l0 320c0 35.3-28.7 64-64 64L64 480c-35.3 0-64-28.7-64-64L0 96zm228 33.1c2.5 1.4 4 4.1 4 6.9l0 232 56 0c4.4 0 8 3.6 8 8s-3.6 8-8 8l-64 0-64 0c-4.4 0-8-3.6-8-8s3.6-8 8-8l56 0 0-218.2-44 25.2c-3.8 2.2-8.7 .9-10.9-3s-.9-8.7 3-10.9l56-32c2.5-1.4 5.5-1.4 8 0z"/></svg>

<svg xmlns="http://www.w3.org/2000/svg" viewBox="0 0 448 512"><!--! Font Awesome Pro 6.4.0 by @fontawesome - https://fontawesome.com License - https://fontawesome.com/license (Commercial License) Copyright 2023 Fonticons, Inc. --><path d="M64 48C37.5 48 16 69.5 16 96V416c0 26.5 21.5 48 48 48H384c26.5 0 48-21.5 48-48V96c0-26.5-21.5-48-48-48H64zM0 96C0 60.7 28.7 32 64 32H384c35.3 0 64 28.7 64 64V416c0 35.3-28.7 64-64 64H64c-35.3 0-64-28.7-64-64V96zm228 33.1c2.5 1.4 4 4.1 4 6.9V368h56c4.4 0 8 3.6 8 8s-3.6 8-8 8H224 160c-4.4 0-8-3.6-8-8s3.6-8 8-8h56V149.8l-44 25.2c-3.8 2.2-8.7 .9-10.9-3s-.9-8.7 3-10.9l56-32c2.5-1.4 5.5-1.4 8 0z"/></svg>
